X:1
T:Deutcher Tanz
T:Deutcher Tanz
T:Joseph Haydn
C:Joseph Haydn
%%score 1 2
L:1/8
Q:1/4=160
M:3/4
K:D
V:1 treble 
V:2 bass 
V:1
"^f" .d'2 .d'2 .d'2 | .a2 .a2 (fg | .a2) .a2 .d'2 | a4 (af | .d2) .d2 (bg | .e2) .e2 (ge | dcBABc | %7
 d6) ::"^mp" .a2 .a2 .a2 | (a^gfefg | .a2) .a2 (^ge | a4) (af |"^cresc." .d2) .d2 (bg | %13
 .e2) .e2 (ge | dcBABc | d6) :| %16
V:2
 .D2 .D2 .D2 | .A,2 .A,2 (F,G, | .A,2) .A,2 .D2 | A,4 z2 | .[F,A,]2 .[F,A,]2 z2 | %5
 .[G,B,]2 .[G,B,]2 z2 | .[A,,G,]2 .[A,,G,]2 .[A,,G,]2 | [D,F,]6 :: .[A,CE]2 .[A,CE]2 .[A,CE]2 | %9
 .[B,DE]2 .[B,DE]2 .[B,DE]2 | .[A,CE]2 .[A,CE]2 .[B,DE]2 | [A,CE]4 z2 | .[F,A,]2 .[F,A,]2 z2 | %13
 .[G,B,]2 .[G,B,]2 z2 | .[A,,G,]2 .[A,,G,]2 .[A,,G,]2 | [D,F,]6 :| %16

